!!!OTL: Der Mutter Warnung. / (Tanzlied.)
!!!ARE: Europa, Mitteleuropa, Deutschland
!!!SCT: A0228
!!!TXL: @@GMH
!!!YEM: Copyright 1995, estate of Helmut Schaffrath.
**kern	**text
*M3/2	*
*met(3)	*
*clefC4	*
*k[b-]	*
*g:	*
=1	=1
2ryy	.
2ryy	.
{2G	Die
=2	=2
1B-	Mut-
2G	-ter
=3	=3
1B-	ſprach
2c	ʒum
=4	=4
2.d	Töch-
4e	-ter-
2f	-lein
=5	=5
1e-}	ʒart:
{2d	'Jch
=6	=6
1c	habs
2B-	er-
=7	=7
1A	-fah-
2G	-ren
=8	=8
1F#}	oft,
{2G	Daß
=9	=9
1B-	man-
2G	-ches
=10	=10
1B-	ſchö-
2c	-ne
=11	=11
2.d	Mä-
4e	-di-
2f	-chen
=12	=12
1e-}	ward
{2d	be-
=13	=13
1c	-tro-
2B-	-gen
=14	=14
1A	un-
2G	-ver-
=15	=15
1F#}	-hofft.'
{2A	Das
=16	=16
2.B-	Töch-
4A	-ter-
2B-	-lein
=17	=17
2.c	wi-
4B-	-der
2c	das
=18	=18
2.d	Müt-
4c	-ter-
2d	-lein
=19	=19
1e-}	ſagt:
{2d	"Du
=20	=20
1c	ſagſt
2B-	mir
=21	=21
1B-	wol
2A	dar-
=22	=22
1B-}	-von.
{2d	Ach
=23	=23
2.d	mer-
4e	-ga
2f	box
=24	=24
2.d	mut-
4e	-ter
2f	mein,
=25	=25
2.d	gib
4c	mir
2B-	ein
=26	=26
2.A	Man-
4B-}	-ne,
{2c	ſonſt
=27	=27
2.B-	weiß
4A/	ich
2G	ihm
=28	=28
2.F#	nim-
4G	-mer
2A/	ʒu
=29	=29
1.G}	thon."
==	==
!!!GTL: Liebeslieder
!!!AGN: Romanze, Ballade, Lied
!! Werlins Hs. 1646 S. 2167.
!!!ONB: ESAC (Essen Associative Code) Database: ALTDEU
!!!AMT: simple triple
!!!AIN: vox
!!!EED: Helmut Schaffrath
!!!EEV: 1.0
!!!URL-scan: https://rosdok.uni-rostock.de/mcrviewer/recordIdentifier/rosdok_ppn738218359/iview2/phys_0381.iview2?x=-495.6391625615763&y=901.6251231697388&scale=0.4629418472063854&rotation=0&layout=singlePageLayout&logicalDiv=log_0010
!!!ENC: Anna Maria Matuszewska
!!!EEV: 2024/08/03
*-	*-
